static/site/images/special-projects/autoclave/svg/circle-icon-7.svg

<svg width="108" height="109" viewBox="0 0 108 109" fill="none" xmlns="http://www.w3.org/2000/svg">
<path d="M73.1176 72.3477C76.388 72.3477 76.388 74.9316 79.6585 74.9316C82.929 74.9316 82.929 72.3477 86.1995 72.3477C89.47 72.3477 89.4571 74.9316 92.663 74.9316" stroke="#0073FF" stroke-width="2" stroke-miterlimit="10"/>
<path d="M53.5228 72.3477C56.7804 72.3477 56.7804 74.9316 59.9862 74.9316C63.1921 74.9316 63.2567 72.3477 66.5272 72.3477C69.7977 72.3477 69.7977 74.9316 72.9906 74.9316" stroke="#0073FF" stroke-width="2" stroke-miterlimit="10"/>
<path d="M34.3901 72.3477C37.6606 72.3477 37.6606 74.9316 40.9311 74.9316C44.2016 74.9316 44.1887 72.3477 47.3946 72.3477C50.6004 72.3477 50.6651 74.9316 53.9355 74.9316" stroke="#0073FF" stroke-width="2" stroke-miterlimit="10"/>
<path d="M15.2195 72.3477C18.4771 72.3477 18.4771 74.9316 21.7475 74.9316C25.018 74.9316 25.018 72.3477 28.2885 72.3477C31.559 72.3477 31.559 74.9316 34.8295 74.9316" stroke="#0073FF" stroke-width="2" stroke-miterlimit="10"/>
<path d="M63.3215 82.8828C66.592 82.8828 66.592 85.4682 69.7849 85.4682C72.9779 85.4682 73.0554 82.8828 76.3259 82.8828C79.5964 82.8828 79.5964 85.4682 82.8669 85.4682" stroke="#0073FF" stroke-width="2" stroke-miterlimit="10"/>
<path d="M44.2014 82.8828C47.459 82.8828 47.459 85.4682 50.6648 85.4682C53.8707 85.4682 53.9353 82.8828 57.2058 82.8828C60.4763 82.8828 60.4763 85.4682 63.6692 85.4682" stroke="#0073FF" stroke-width="2" stroke-miterlimit="10"/>
<path d="M25.0686 82.8828C28.3391 82.8828 28.3391 85.4682 31.6096 85.4682C34.8801 85.4682 34.8671 82.8828 38.1376 82.8828C41.4081 82.8828 41.4081 85.4682 44.6786 85.4682" stroke="#0073FF" stroke-width="2" stroke-miterlimit="10"/>
<path d="M54 107.107C83.2711 107.107 107 83.3785 107 54.1074C107 24.8363 83.2711 1.10742 54 1.10742C24.7289 1.10742 1 24.8363 1 54.1074C1 83.3785 24.7289 107.107 54 107.107Z" stroke="#0073FF" stroke-width="2" stroke-miterlimit="10"/>
<path d="M2.38354 38.7754H105.617" stroke="#0073FF" stroke-width="2" stroke-miterlimit="10"/>
<path d="M87.7527 38.7754H20.2488V63.9453H87.7527V38.7754Z" stroke="#0073FF" stroke-width="2" stroke-miterlimit="10"/>
<path d="M21.0366 38.5686L40.1296 26.0566L58.4986 38.7754" stroke="#0073FF" stroke-width="2" stroke-miterlimit="10"/>
<path d="M20.2488 50.1516L37.881 38.7754M87.7527 51.8839L69.2027 63.9453L87.7527 51.8839ZM87.7527 42.7829L55.2029 63.9453L87.7527 42.7829ZM65.8805 38.7754L27.1776 63.9453L65.8805 38.7754ZM79.8544 38.7754L41.1902 63.9453L79.8544 38.7754ZM20.2488 59.356L51.8937 38.7754L20.2488 59.356Z" stroke="#0073FF" stroke-width="2" stroke-miterlimit="10"/>
<path d="M47.6653 31.278L62.6992 21.4277L87.7514 38.7755" stroke="#0073FF" stroke-width="2" stroke-miterlimit="10"/>
</svg>

<svg width="108" height="109" fill="none" xmlns="http://www.w3.org/2000/svg"><path d="M73.118 72.348c3.27 0 3.27 2.584 6.54 2.584 3.271 0 3.271-2.584 6.541-2.584 3.271 0 3.258 2.584 6.464 2.584m-39.14-2.584c3.257 0 3.257 2.584 6.463 2.584s3.27-2.584 6.541-2.584c3.27 0 3.27 2.584 6.464 2.584M34.39 72.348c3.27 0 3.27 2.584 6.541 2.584 3.27 0 3.258-2.584 6.464-2.584 3.205 0 3.27 2.584 6.54 2.584M15.22 72.348c3.257 0 3.257 2.584 6.527 2.584 3.271 0 3.271-2.584 6.541-2.584 3.271 0 3.271 2.584 6.542 2.584m28.492 7.951c3.27 0 3.27 2.585 6.463 2.585s3.27-2.585 6.54-2.585c3.271 0 3.271 2.585 6.542 2.585m-38.666-2.585c3.258 0 3.258 2.585 6.464 2.585 3.206 0 3.27-2.585 6.54-2.585 3.271 0 3.271 2.585 6.464 2.585m-38.6-2.585c3.27 0 3.27 2.585 6.54 2.585 3.271 0 3.258-2.585 6.529-2.585 3.27 0 3.27 2.585 6.54 2.585" stroke="#0073FF" stroke-width="2" stroke-miterlimit="10"/><path d="M54 107.107c29.271 0 53-23.728 53-53 0-29.27-23.729-53-53-53s-53 23.73-53 53c0 29.272 23.729 53 53 53zM2.384 38.775h103.233" stroke="#0073FF" stroke-width="2" stroke-miterlimit="10"/><path d="M87.753 38.775H20.249v25.17h67.504v-25.17zm-66.716-.206L40.13 26.057l18.369 12.718" stroke="#0073FF" stroke-width="2" stroke-miterlimit="10"/><path d="M20.249 50.152L37.88 38.775m49.872 13.109l-18.55 12.061 18.55-12.061zm0-9.101l-32.55 21.162 32.55-21.162zM65.88 38.775l-38.702 25.17 38.703-25.17zm13.974 0L41.19 63.945l38.664-25.17zM20.25 59.356l31.645-20.58-31.645 20.58zm27.415-28.078l15.034-9.85 25.052 17.348" stroke="#0073FF" stroke-width="2" stroke-miterlimit="10"/></svg>
